public/svg/profiles/tumblr.svg

<?xml version="1.0" encoding="UTF-8" standalone="no"?>
<svg width="50px" height="50px" viewBox="0 0 50 50" version="1.1" xmlns="http://www.w3.org/2000/svg" xmlns:xlink="http://www.w3.org/1999/xlink">
    <defs></defs>
    <g stroke="none" stroke-width="1" fill="none" fill-rule="evenodd">
        <g>
            <g>
                <circle id="Oval" fill="#314358" cx="25" cy="25" r="25"></circle>
                <path d="M30.4776316,32.2960526 C30.0526316,32.5065789 29.2381579,32.6881579 28.6315789,32.7039474 C26.7986842,32.7565789 26.4421053,31.3723684 26.4276316,30.3697368 L26.4276316,23 L31.025,23 L31.025,19.4131579 L26.4421053,19.4131579 L26.4421053,13.3802632 L23.0921053,13.3802632 C23.0355263,13.3802632 22.9394737,13.4302632 22.925,13.5565789 C22.7276316,15.4052632 21.8947368,18.6460526 18.4210526,19.9407895 L18.4210526,23 L20.7368421,23 L20.7368421,30.7368421 C20.7368421,33.3881579 22.6276316,37.1526316 27.6144737,37.0657895 C29.2986842,37.0342105 31.1671053,36.3052632 31.5789474,35.6763158 L30.4776316,32.3013158" id="Shape" fill="#FFFFFF"></path>
            </g>
        </g>
    </g>
</svg>

<svg width="50" height="50" viewBox="0 0 50 50" xmlns="http://www.w3.org/2000/svg"><g fill="none" fill-rule="evenodd"><circle fill="#314358" cx="25" cy="25" r="25"/><path d="M30.478 32.296c-.425.21-1.24.392-1.846.408-1.833.053-2.19-1.332-2.204-2.334V23h4.597v-3.587h-4.583V13.38h-3.35c-.056 0-.153.05-.167.177-.197 1.848-1.03 5.09-4.504 6.384V23h2.317v7.737c0 2.65 1.89 6.416 6.877 6.33 1.685-.033 3.553-.762 3.965-1.39L30.477 32.3" fill="#FFF"/></g></svg>
